icon-themes/breeze_svg/cmd/lc_entirecell.svg

<svg viewBox="0 0 24 24" xmlns="http://www.w3.org/2000/svg"><path d="m4 4v1 15h1 8v-1h-3v-2h3v-1h-3v-1-1h3v-1h-3v-2h4v1h1v-1h4v2h-1v1h2v-9-1zm1 1h4v1 1h-1-3zm5 0h4v1 1h-4v-1zm5 0h4v2h-3-1v-1zm-10 3h3 1v1 1h-4v-1zm5 0h4v1 1h-4v-1zm5 0h4v1 1h-4v-1zm-10 3h4v2h-4zm0 3h4v1 1h-1-3v-1zm0 3h3 1v1.099609.900391h-4z" fill="#4d4d4d"/><path d="m9 10v4h4v-1h-3v-2h4v1h1v-2zm5 3v9l2.400391-4h3.599609z" fill="#1d99f3"/></svg>

<svg xmlns="http://www.w3.org/2000/svg" viewBox="0 0 24 24">
 <path 
     style="fill:#4d4d4d" 
     d="M 4 4 L 4 5 L 4 20 L 5 20 L 13 20 L 13 19 L 10 19 L 10 17 L 13 17 L 13 16 L 10 16 L 10 15 L 10 14 L 13 14 L 13 13 L 10 13 L 10 11 L 14 11 L 14 12 L 15 12 L 15 11 L 19 11 L 19 13 L 18 13 L 18 14 L 20 14 L 20 5 L 20 4 L 4 4 z M 5 5 L 9 5 L 9 6 L 9 7 L 8 7 L 5 7 L 5 5 z M 10 5 L 14 5 L 14 6 L 14 7 L 10 7 L 10 6 L 10 5 z M 15 5 L 19 5 L 19 7 L 16 7 L 15 7 L 15 6 L 15 5 z M 5 8 L 8 8 L 9 8 L 9 9 L 9 10 L 5 10 L 5 9 L 5 8 z M 10 8 L 14 8 L 14 9 L 14 10 L 10 10 L 10 9 L 10 8 z M 15 8 L 19 8 L 19 9 L 19 10 L 15 10 L 15 9 L 15 8 z M 5 11 L 9 11 L 9 13 L 5 13 L 5 11 z M 5 14 L 9 14 L 9 15 L 9 16 L 8 16 L 5 16 L 5 15 L 5 14 z M 5 17 L 8 17 L 9 17 L 9 18.099609 L 9 19 L 5 19 L 5 17 z "
     />
 <path 
     style="fill:#1d99f3" 
     d="M 9 10 L 9 14 L 13 14 L 13 13 L 10 13 L 10 11 L 14 11 L 14 12 L 15 12 L 15 10 L 9 10 z M 14 13 L 14 22 L 16.400391 18 L 20 18 L 14 13 z "
     />
 </svg>
